Costumes/e-block.svg

<?xml version="1.0" encoding="UTF-8" standalone="no"?>
<svg
   version="1.1"
   width="52.19017"
   height="79.108582"
   id="svg5"
   sodipodi:docname="e-block.svg"
   xmlns:inkscape="http://www.inkscape.org/namespaces/inkscape"
   xmlns:sodipodi="http://sodipodi.sourceforge.net/DTD/sodipodi-0.dtd"
   xmlns="http://www.w3.org/2000/svg"
   xmlns:svg="http://www.w3.org/2000/svg">
  <defs
     id="defs9" />
  <sodipodi:namedview
     id="namedview7"
     pagecolor="#ffffff"
     bordercolor="#000000"
     borderopacity="0.25"
     inkscape:showpageshadow="2"
     inkscape:pageopacity="0.0"
     inkscape:pagecheckerboard="0"
     inkscape:deskcolor="#d1d1d1" />
  <!-- Exported by Scratch - http://scratch.mit.edu/ -->
  <g
     id="ID0.768292773514986"
     transform="translate(-0.00993823,-0.84085284)">
    <path
       id="ID0.19634276255965233"
       fill="#ff9400"
       d="m 329,359 c -1.675,1.659 -0.796,5.871 -1,9 -11.307,0.048 -19.998,2.511 -28,1 -1.32,3.913 -0.556,8.363 -1,15 9.642,0.064 16.733,-0.85 27,-2 2.105,2.224 -1.054,4.822 0,9 -10.973,0.514 -18.285,-0.626 -27,1 1.953,5.714 0.605,14.729 1,22 9.28,-1.387 19.484,-1.849 28,-4 0.281,3.386 1.591,5.742 1,10 -13.783,0.812 -25,0.971 -37,5 -0.53,-22.065 0.76,-42.416 -3,-64 12.394,-4.507 23.584,-0.008 40,-2 z"
       transform="matrix(0.96132594,0,0,0.96132594,-268.2,-340.15)" />
    <path
       id="ID0.303032043389976"
       d="m 323,355 c 3.33,-0.006 6.822,-0.652 10,0 0.652,1.263 0,3.333 0,5 -0.333,0 -0.667,0 -1,0 -1.498,3.168 -0.502,8.832 -2,12 -6.059,-1.077 -4.486,2.579 -6,4 l -19.75,1.25 c -2.038,0.456 -0.749,-0.912 -2.25,2.75 9.49,2.387 16.704,-3.174 27,-2 2.467,8.386 -1.701,16.313 -5,22 -8.267,-0.267 -15.482,0.518 -21,3 0,2.333 0,4.667 0,7 9.786,-0.881 20.042,-1.291 28,-4 3.144,11.16 -2.596,15.502 -2,23 -14.675,2.659 -32.636,2.03 -44,8 -0.667,0 -1.333,0 -2,0 -2.927,-27.54 5.891,-46.438 -4,-69 0,-0.667 0,-1.333 0,-2 6.864,0.864 7.196,-4.804 9,-9 4.106,-1.228 9.995,-0.782 14,-2 8.064,0.597 14.531,0.059 21,0 z m -34,6 c 3.76,21.584 2.47,41.935 3,64 12,-4.029 23.217,-4.188 37,-5 0.591,-4.258 -0.719,-6.614 -1,-10 -8.516,2.151 -18.72,2.613 -28,4 -0.395,-7.271 0.953,-16.286 -1,-22 8.715,-1.626 16.027,-0.486 27,-1 -1.054,-4.178 2.105,-6.776 0,-9 -10.267,1.15 -17.358,2.064 -27,2 0.444,-6.637 -0.32,-11.087 1,-15 8.002,1.511 16.693,-0.952 28,-1 0.204,-3.129 -0.675,-7.341 1,-9 -16.416,1.992 -27.606,-2.507 -40,2 z"
       transform="matrix(0.96132594,0,0,0.96132594,-268.2,-340.15)" />
  </g>
</svg>

<svg version="1.1" width="53" height="80" xmlns="http://www.w3.org/2000/svg" xmlns:xlink="http://www.w3.org/1999/xlink">
  <!-- Exported by Scratch - http://scratch.mit.edu/ -->
  <g id="ID0.768292773514986">
    <path id="ID0.19634276255965233" fill="#FF9400" d="M 329 359 C 327.325 360.659 328.204 364.871 328 368 C 316.693 368.048 308.002 370.511 300 369 C 298.680 372.913 299.444 377.363 299 384 C 308.642 384.064 315.733 383.150 326 382 C 328.105 384.224 324.946 386.822 326 391 C 315.027 391.514 307.715 390.374 299 392 C 300.953 397.714 299.605 406.729 300 414 C 309.280 412.613 319.484 412.151 328 410 C 328.281 413.386 329.591 415.742 329 420 C 315.217 420.812 304 420.971 292 425 C 291.470 402.935 292.760 382.584 289 361 C 301.394 356.493 312.584 360.992 329 359 Z " transform="matrix(0.9613259434700012, 0, 0, 0.9613259434700012, -268.2, -340.15)"/>
    <path id="ID0.303032043389976" d="M 323 355 C 326.330 354.994 329.822 354.348 333 355 C 333.652 356.263 333 358.333 333 360 C 332.667 360 332.333 360 332 360 C 330.502 363.168 331.498 368.832 330 372 C 323.941 370.923 325.514 374.579 324 376 L 304.250 377.250 C 302.212 377.706 303.501 376.338 302 380 C 311.490 382.387 318.704 376.826 329 378 C 331.467 386.386 327.299 394.313 324 400 C 315.733 399.733 308.518 400.518 303 403 C 303 405.333 303 407.667 303 410 C 312.786 409.119 323.042 408.709 331 406 C 334.144 417.160 328.404 421.502 329 429 C 314.325 431.659 296.364 431.030 285 437 C 284.333 437 283.667 437 283 437 C 280.073 409.460 288.891 390.562 279 368 C 279 367.333 279 366.667 279 366 C 285.864 366.864 286.196 361.196 288 357 C 292.106 355.772 297.995 356.218 302 355 C 310.064 355.597 316.531 355.059 323 355 Z M 289 361 C 292.760 382.584 291.470 402.935 292 425 C 304 420.971 315.217 420.812 329 420 C 329.591 415.742 328.281 413.386 328 410 C 319.484 412.151 309.280 412.613 300 414 C 299.605 406.729 300.953 397.714 299 392 C 307.715 390.374 315.027 391.514 326 391 C 324.946 386.822 328.105 384.224 326 382 C 315.733 383.150 308.642 384.064 299 384 C 299.444 377.363 298.680 372.913 300 369 C 308.002 370.511 316.693 368.048 328 368 C 328.204 364.871 327.325 360.659 329 359 C 312.584 360.992 301.394 356.493 289 361 Z " transform="matrix(0.9613259434700012, 0, 0, 0.9613259434700012, -268.2, -340.15)"/>
  </g>
</svg>
